templates/main/source/images/papka.svg

<?xml version="1.0" encoding="utf-8"?>
<svg width="16px" height="16px" viewbox="0 0 16 16" version="1.1" xmlns:xlink="http://www.w3.org/1999/xlink" xmlns="http://www.w3.org/2000/svg">
  <defs>
    <path d="M7.999 0L8.001 0Q8.19736 0 8.39349 0.00963514Q8.58962 0.0192703 8.78504 0.0385174Q8.98046 0.0577644 9.1747 0.0865771Q9.36893 0.11539 9.56153 0.153699Q9.75412 0.192007 9.9446 0.23972Q10.1351 0.287433 10.323 0.344434Q10.5109 0.401436 10.6958 0.467589Q10.8807 0.533742 11.0621 0.608888Q11.2435 0.684033 11.421 0.76799Q11.5985 0.851946 11.7717 0.944512Q11.9449 1.03708 12.1133 1.13803Q12.2817 1.23898 12.445 1.34807Q12.6083 1.45717 12.766 1.57414Q12.9237 1.69112 13.0755 1.81569Q13.2273 1.94026 13.3728 2.07213Q13.5183 2.204 13.6571 2.34285Q13.796 2.4817 13.9279 2.6272Q14.0597 2.7727 14.1843 2.92449Q14.3089 3.07628 14.4259 3.234Q14.5428 3.39172 14.6519 3.55499Q14.761 3.71826 14.862 3.88669Q14.9629 4.05512 15.0555 4.2283Q15.1481 4.40148 15.232 4.57899Q15.316 4.7565 15.3911 4.93791Q15.4663 5.11933 15.5324 5.30422Q15.5986 5.4891 15.6556 5.67701Q15.7126 5.86492 15.7603 6.0554Q15.808 6.24588 15.8463 6.43847Q15.8846 6.63106 15.9134 6.8253Q15.9422 7.01954 15.9615 7.21496Q15.9807 7.41038 15.9904 7.60651Q16 7.80264 16 7.999L16 8.001Q16 8.19736 15.9904 8.39349Q15.9807 8.58962 15.9615 8.78504Q15.9422 8.98046 15.9134 9.1747Q15.8846 9.36893 15.8463 9.56153Q15.808 9.75412 15.7603 9.9446Q15.7126 10.1351 15.6556 10.323Q15.5986 10.5109 15.5324 10.6958Q15.4663 10.8807 15.3911 11.0621Q15.316 11.2435 15.232 11.421Q15.1481 11.5985 15.0555 11.7717Q14.9629 11.9449 14.862 12.1133Q14.761 12.2817 14.6519 12.445Q14.5428 12.6083 14.4259 12.766Q14.3089 12.9237 14.1843 13.0755Q14.0597 13.2273 13.9279 13.3728Q13.796 13.5183 13.6571 13.6571Q13.5183 13.796 13.3728 13.9279Q13.2273 14.0597 13.0755 14.1843Q12.9237 14.3089 12.766 14.4259Q12.6083 14.5428 12.445 14.6519Q12.2817 14.761 12.1133 14.862Q11.9449 14.9629 11.7717 15.0555Q11.5985 15.1481 11.421 15.232Q11.2435 15.316 11.0621 15.3911Q10.8807 15.4663 10.6958 15.5324Q10.5109 15.5986 10.323 15.6556Q10.1351 15.7126 9.9446 15.7603Q9.75412 15.808 9.56153 15.8463Q9.36893 15.8846 9.1747 15.9134Q8.98046 15.9422 8.78504 15.9615Q8.58962 15.9807 8.39349 15.9904Q8.19736 16 8.001 16L7.999 16Q7.80264 16 7.60651 15.9904Q7.41038 15.9807 7.21496 15.9615Q7.01954 15.9422 6.8253 15.9134Q6.63106 15.8846 6.43847 15.8463Q6.24588 15.808 6.0554 15.7603Q5.86492 15.7126 5.67701 15.6556Q5.4891 15.5986 5.30422 15.5324Q5.11933 15.4663 4.93791 15.3911Q4.7565 15.316 4.57899 15.232Q4.40148 15.1481 4.2283 15.0555Q4.05512 14.9629 3.88669 14.862Q3.71826 14.761 3.55499 14.6519Q3.39172 14.5428 3.234 14.4259Q3.07628 14.3089 2.92449 14.1843Q2.7727 14.0597 2.6272 13.9279Q2.4817 13.796 2.34285 13.6571Q2.204 13.5183 2.07213 13.3728Q1.94026 13.2273 1.81569 13.0755Q1.69112 12.9237 1.57414 12.766Q1.45717 12.6083 1.34807 12.445Q1.23898 12.2817 1.13803 12.1133Q1.03708 11.9449 0.944512 11.7717Q0.851946 11.5985 0.76799 11.421Q0.684033 11.2435 0.608888 11.0621Q0.533742 10.8807 0.467589 10.6958Q0.401436 10.5109 0.344434 10.323Q0.287433 10.1351 0.23972 9.9446Q0.192007 9.75412 0.153699 9.56153Q0.11539 9.36893 0.0865771 9.1747Q0.0577644 8.98046 0.0385174 8.78504Q0.0192703 8.58962 0.00963514 8.39349Q0 8.19736 0 8.001L0 7.999Q0 7.80264 0.00963514 7.60651Q0.0192703 7.41038 0.0385174 7.21496Q0.0577644 7.01954 0.0865771 6.8253Q0.11539 6.63106 0.153699 6.43847Q0.192007 6.24588 0.23972 6.0554Q0.287433 5.86492 0.344434 5.67701Q0.401436 5.4891 0.467589 5.30422Q0.533742 5.11933 0.608888 4.93791Q0.684033 4.7565 0.76799 4.57899Q0.851946 4.40148 0.944512 4.2283Q1.03708 4.05512 1.13803 3.88669Q1.23898 3.71826 1.34807 3.55499Q1.45717 3.39172 1.57414 3.234Q1.69112 3.07628 1.81569 2.92449Q1.94026 2.7727 2.07213 2.6272Q2.204 2.4817 2.34285 2.34285Q2.4817 2.204 2.6272 2.07213Q2.7727 1.94026 2.92449 1.81569Q3.07628 1.69112 3.234 1.57414Q3.39172 1.45717 3.55499 1.34807Q3.71826 1.23898 3.88669 1.13803Q4.05512 1.03708 4.2283 0.944512Q4.40148 0.851946 4.57899 0.76799Q4.7565 0.684033 4.93791 0.608888Q5.11933 0.533742 5.30422 0.467589Q5.4891 0.401436 5.67701 0.344434Q5.86492 0.287433 6.0554 0.23972Q6.24588 0.192007 6.43847 0.153699Q6.63106 0.11539 6.8253 0.0865771Q7.01954 0.0577644 7.21496 0.0385174Q7.41038 0.0192703 7.60651 0.00963514Q7.80264 0 7.999 0L7.999 0Z" id="path_1" />
    <clipPath id="clip_1">
      <use xlink:href="#path_1" />
    </clipPath>
  </defs>
  <g id="Rectangle-3">
    <use stroke="none" fill="#FFFFFF" xlink:href="#path_1" fill-rule="evenodd" />
    <g clip-path="url(#clip_1)">
      <use xlink:href="#path_1" fill="none" stroke="#A6A6A6" stroke-width="2" />
    </g>
  </g>
  <path d="M3.999 0L4.001 0Q4.19746 0 4.39297 0.0192563Q4.58848 0.0385126 4.78117 0.0768396Q4.97385 0.115167 5.16185 0.172196Q5.34985 0.229224 5.53135 0.304406Q5.71285 0.379587 5.88612 0.472197Q6.05938 0.564807 6.22272 0.673953Q6.38607 0.783099 6.53794 0.907731Q6.6898 1.03236 6.82872 1.17128Q6.96764 1.3102 7.09227 1.46206Q7.2169 1.61393 7.32605 1.77727Q7.43519 1.94062 7.5278 2.11388Q7.62041 2.28715 7.69559 2.46865Q7.77078 2.65015 7.8278 2.83815Q7.88483 3.02615 7.92316 3.21883Q7.96149 3.41152 7.98074 3.60703Q8 3.80254 8 3.999L8 4.001Q8 4.19746 7.98074 4.39297Q7.96149 4.58848 7.92316 4.78117Q7.88483 4.97385 7.8278 5.16185Q7.77078 5.34985 7.69559 5.53135Q7.62041 5.71285 7.5278 5.88612Q7.43519 6.05938 7.32605 6.22272Q7.2169 6.38607 7.09227 6.53794Q6.96764 6.6898 6.82872 6.82872Q6.6898 6.96764 6.53794 7.09227Q6.38607 7.2169 6.22272 7.32605Q6.05938 7.43519 5.88612 7.5278Q5.71285 7.62041 5.53135 7.69559Q5.34985 7.77078 5.16185 7.8278Q4.97385 7.88483 4.78117 7.92316Q4.58848 7.96149 4.39297 7.98074Q4.19746 8 4.001 8L3.999 8Q3.80254 8 3.60703 7.98074Q3.41152 7.96149 3.21883 7.92316Q3.02615 7.88483 2.83815 7.8278Q2.65015 7.77078 2.46865 7.69559Q2.28715 7.62041 2.11388 7.5278Q1.94062 7.43519 1.77727 7.32605Q1.61393 7.2169 1.46206 7.09227Q1.3102 6.96764 1.17128 6.82872Q1.03236 6.6898 0.907731 6.53794Q0.783099 6.38607 0.673953 6.22272Q0.564807 6.05938 0.472197 5.88612Q0.379587 5.71285 0.304406 5.53135Q0.229224 5.34985 0.172196 5.16185Q0.115167 4.97385 0.0768396 4.78117Q0.0385126 4.58848 0.0192563 4.39297Q0 4.19746 0 4.001L0 3.999Q0 3.80254 0.0192563 3.60703Q0.0385126 3.41152 0.0768396 3.21883Q0.115167 3.02615 0.172196 2.83815Q0.229224 2.65015 0.304406 2.46865Q0.379587 2.28715 0.472197 2.11388Q0.564807 1.94062 0.673953 1.77727Q0.783099 1.61393 0.907731 1.46206Q1.03236 1.3102 1.17128 1.17128Q1.3102 1.03236 1.46206 0.907731Q1.61393 0.783099 1.77727 0.673953Q1.94062 0.564807 2.11388 0.472197Q2.28715 0.379587 2.46865 0.304406Q2.65015 0.229224 2.83815 0.172196Q3.02615 0.115167 3.21883 0.0768396Q3.41152 0.0385126 3.60703 0.0192563Q3.80254 0 3.999 0Z" transform="translate(4 4)" id="Rectangle-7" fill="#8C0014" fill-rule="evenodd" stroke="none" />
</svg>

<svg width="16" height="16" xmlns:xlink="http://www.w3.org/1999/xlink" xmlns="http://www.w3.org/2000/svg"><defs><clipPath id="clip_1"><use xlink:href="#path_1"/></clipPath><path d="M7.999 0h.002q.196 0 .392.01.197.01.392.029.195.019.39.048.194.028.387.067.192.038.383.086.19.047.378.104.188.057.373.124.185.066.366.14.181.076.359.16t.35.177q.174.092.342.193.169.101.332.21.163.11.321.226.158.117.31.242.151.124.297.256.145.132.284.27.139.14.27.285.133.146.257.297.125.152.242.31.117.158.226.321t.21.332q.1.168.194.341.092.173.176.351.084.178.16.359.074.181.14.366.067.185.124.373.057.188.104.378.048.19.086.383.039.193.067.387.03.195.048.39.02.195.03.392.009.196.009.392v.002q0 .196-.01.392-.01.197-.029.392-.019.195-.048.39-.028.194-.067.387-.038.192-.086.383-.047.19-.104.378-.057.188-.124.373-.066.185-.14.366-.076.181-.16.359t-.176.35q-.093.174-.194.342-.101.169-.21.332-.11.163-.226.321-.117.158-.242.31-.124.151-.256.297-.132.145-.27.284-.14.139-.285.27-.146.133-.297.257-.152.125-.31.242-.158.117-.321.226t-.332.21q-.168.1-.341.194-.174.092-.351.176-.178.084-.359.16-.181.074-.366.14-.185.067-.373.124-.188.057-.378.104-.19.048-.383.086-.193.039-.387.067-.195.03-.39.048-.195.02-.392.03-.196.009-.392.009h-.002q-.196 0-.392-.01-.197-.01-.392-.029-.195-.019-.39-.048-.194-.028-.387-.067-.192-.038-.383-.086-.19-.047-.378-.104-.188-.057-.373-.124-.185-.066-.366-.14-.181-.076-.359-.16t-.35-.176q-.174-.093-.342-.194-.169-.101-.332-.21-.163-.11-.321-.226-.158-.117-.31-.242-.151-.124-.297-.256-.145-.132-.284-.27-.139-.14-.27-.285-.133-.146-.257-.297-.125-.152-.242-.31-.117-.158-.226-.321t-.21-.332q-.1-.168-.193-.341-.093-.174-.177-.351-.084-.178-.16-.359-.074-.181-.14-.366-.067-.185-.124-.373-.057-.188-.104-.378-.048-.19-.086-.383-.039-.193-.067-.387-.03-.195-.048-.39-.02-.195-.03-.392Q0 8.197 0 8.001v-.002q0-.196.01-.392.01-.197.029-.392.019-.195.048-.39.028-.194.067-.387.038-.192.086-.383.047-.19.104-.378.057-.188.124-.373.066-.185.14-.366.076-.181.16-.359t.177-.35q.092-.174.193-.342.101-.169.21-.332.11-.163.226-.321.117-.158.242-.31.124-.151.256-.297.132-.145.27-.284.14-.139.285-.27.146-.133.297-.257.152-.125.31-.242.158-.117.321-.226t.332-.21q.168-.1.341-.193.173-.093.351-.177.178-.084.359-.16.181-.074.366-.14Q5.49.4 5.677.344q.188-.057.378-.104.19-.048.383-.086.193-.039.387-.067.195-.03.39-.048.195-.02.392-.03Q7.803 0 7.999 0z" id="path_1"/></defs><g id="Rectangle-3"><use fill="#FFF" xlink:href="#path_1" fill-rule="evenodd"/><g clip-path="url(#clip_1)"><use xlink:href="#path_1" fill="none" stroke="#A6A6A6" stroke-width="2"/></g></g><path d="M3.999 0h.002q.196 0 .392.02.195.019.388.057.193.038.38.095.189.057.37.132.182.076.355.168.173.093.337.202.163.11.315.234.152.124.29.263.14.14.264.291.125.152.234.315.11.164.202.337.092.173.168.355.075.181.132.37.057.187.095.38t.058.388Q8 3.803 8 3.999v.002q0 .196-.02.392-.019.195-.057.388-.038.193-.095.38-.057.189-.132.37-.076.182-.168.355-.093.173-.202.337-.11.163-.234.315-.124.152-.263.29-.14.14-.291.264-.152.125-.315.234-.164.11-.337.202-.173.092-.355.168-.181.075-.37.132-.187.057-.38.095t-.388.058Q4.197 8 4.001 8h-.002q-.196 0-.392-.02-.195-.019-.388-.057-.193-.038-.38-.095-.189-.057-.37-.132-.182-.076-.355-.168-.173-.093-.337-.202-.163-.11-.315-.234-.152-.124-.29-.263-.14-.14-.264-.291-.125-.152-.234-.315-.11-.164-.202-.337-.092-.173-.168-.355-.075-.181-.132-.37-.057-.187-.095-.38t-.058-.388Q0 4.197 0 4.001v-.002q0-.196.02-.392.019-.195.057-.388.038-.193.095-.38.057-.189.132-.37.076-.182.168-.355.093-.173.202-.337.11-.163.234-.315.124-.152.263-.29.14-.14.291-.264.152-.125.315-.234.164-.11.337-.202.173-.092.355-.168.181-.075.37-.132.187-.057.38-.095t.388-.058Q3.803 0 3.999 0z" transform="translate(4 4)" id="Rectangle-7" fill="#8C0014" fill-rule="evenodd" stroke="none"/></svg>
